_includes/icons/ios-paper-airplane.svg

<svg fill="#666" height="50" viewBox="0 0 50 50" width="50" xmlns="http://www.w3.org/2000/svg"><path d="m48.90625 0c-.132812.015625-.257812.0585938-.375.125l-48 26c-.347656.1875-.5507813.5625-.5195312.957031.0351562.394532.3007812.730469.6757812.855469l13.625 4.46875-1.3125 13.5c-.054687.4375.1875.859375.59375 1.035156.40625.175782.878906.058594 1.15625-.285156l8.59375-9.71875 12.96875 12.78125c.253906.25.621094.34375.964844.246094s.605469-.367188.691406-.714844l12-48c.089844-.316406.011719-.65625-.199219-.90625-.214843-.25-.535156-.3789063-.863281-.34375zm-1.4375 2.9375-11.03125 44.125-11.84375-11.6875 17.21875-23.78125c.378906-.398437.367188-1.027344-.03125-1.40625-.398437-.378906-1.027344-.367187-1.40625.03125l-25.15625 20.375-11.71875-3.8125zm-11.6875 13.5625-13.125 18.21875c-.035156.039063-.066406.082031-.09375.125l-.0625.0625c-.023437.03125-.042969.0625-.0625.09375l-7.15625 8.03125 1.0625-10.8125z"/></svg>

<svg xmlns="http://www.w3.org/2000/svg" viewBox="0 0 50 50" width="50" height="50" fill="#666"><path d="M 48.90625 0 C 48.773438 0.015625 48.648438 0.0585938 48.53125 0.125 L 0.53125 26.125 C 0.183594 26.3125 -0.0195313 26.6875 0.0117188 27.082031 C 0.046875 27.476563 0.3125 27.8125 0.6875 27.9375 L 14.3125 32.40625 L 13 45.90625 C 12.945313 46.34375 13.1875 46.765625 13.59375 46.941406 C 14 47.117188 14.472656 47 14.75 46.65625 L 23.34375 36.9375 L 36.3125 49.71875 C 36.566406 49.96875 36.933594 50.0625 37.277344 49.964844 C 37.621094 49.867188 37.882813 49.597656 37.96875 49.25 L 49.96875 1.25 C 50.058594 0.933594 49.980469 0.59375 49.769531 0.34375 C 49.554688 0.09375 49.234375 -0.0351563 48.90625 0 Z M 47.46875 2.9375 L 36.4375 47.0625 L 24.59375 35.375 L 41.8125 11.59375 C 42.191406 11.195313 42.179688 10.566406 41.78125 10.1875 C 41.382813 9.808594 40.753906 9.820313 40.375 10.21875 L 15.21875 30.59375 L 3.5 26.78125 Z M 35.78125 16.5 L 22.65625 34.71875 C 22.621094 34.757813 22.589844 34.800781 22.5625 34.84375 L 22.5 34.90625 C 22.476563 34.9375 22.457031 34.96875 22.4375 35 L 15.28125 43.03125 L 16.34375 32.21875 Z"/></svg>
